svg/android.svg

<svg viewBox="0 0 20 20" xmlns="http://www.w3.org/2000/svg">
<rect width="100%" height="100%" fill="#34A853"/>
<path fill-rule="evenodd" clip-rule="evenodd" d="M18.647 13.3712L18.6424 13.3425C18.6384 13.3172 18.6343 13.2917 18.63 13.2666C18.5941 13.0511 18.5494 12.838 18.4975 12.6279C18.4062 12.2609 18.2915 11.9027 18.1546 11.5557C18.0388 11.2619 17.9071 10.9761 17.7608 10.699C17.5727 10.3433 17.3606 10.0017 17.1263 9.67696C16.839 9.27896 16.5181 8.90608 16.1677 8.56247C16.0207 8.41807 15.8685 8.27871 15.7114 8.14519C15.3711 7.85517 15.0076 7.59109 14.6247 7.35505C14.6264 7.35232 14.6279 7.34949 14.6295 7.34667C14.631 7.34384 14.6326 7.34102 14.6343 7.33829C14.7219 7.18877 14.8097 7.03935 14.8975 6.88993L14.8989 6.88764C14.9863 6.73879 15.0738 6.58994 15.1611 6.441L15.6758 5.56462C15.7993 5.35495 15.9225 5.14484 16.0452 4.93516C16.0744 4.88535 16.0974 4.83388 16.1147 4.78116C16.1628 4.63426 16.1649 4.47982 16.1264 4.33626C16.1166 4.3007 16.1047 4.26596 16.0902 4.23207C16.0757 4.19815 16.0589 4.16509 16.0398 4.13329C15.9742 4.02448 15.8804 3.92989 15.7626 3.86082C15.6585 3.79973 15.5419 3.76331 15.4226 3.75286C15.3724 3.74867 15.3221 3.74908 15.2719 3.75411C15.2306 3.75829 15.1895 3.76584 15.1487 3.77629C15.0035 3.81437 14.8686 3.89306 14.7637 4.00689C14.726 4.0479 14.6919 4.09312 14.6627 4.1429C14.5396 4.35235 14.4165 4.56224 14.2936 4.77169L13.7785 5.64874C13.6908 5.79834 13.603 5.94783 13.5152 6.09731C13.4273 6.24686 13.3395 6.3964 13.2517 6.54605L13.2332 6.57755C13.2202 6.59972 13.2071 6.62196 13.1941 6.6444L13.1838 6.64035C13.1607 6.63124 13.1377 6.62216 13.1145 6.61341C12.1472 6.2493 11.0977 6.05011 10.0006 6.05011C9.97065 6.05011 9.94093 6.05011 9.9107 6.05052C8.93535 6.06013 7.99823 6.22755 7.1239 6.52805C7.02287 6.56279 6.92289 6.59961 6.82367 6.63813L6.8021 6.60144C6.79128 6.58312 6.78047 6.56479 6.76993 6.54646C6.6822 6.39681 6.59433 6.24727 6.50647 6.09772C6.41864 5.94823 6.33081 5.79875 6.24311 5.64915L5.72843 4.77277C5.60493 4.5631 5.48168 4.35301 5.35896 4.14334C5.3295 4.09353 5.29566 4.04833 5.25794 4.00732C5.15304 3.89346 5.01817 3.81478 4.87296 3.7767C4.83214 3.76625 4.79106 3.75872 4.74946 3.75454C4.69959 3.74951 4.64921 3.74908 4.59909 3.75326C4.47972 3.76331 4.36319 3.79973 4.25881 3.86125C4.14099 3.93029 4.04798 4.02489 3.98183 4.1337C3.96271 4.1655 3.94566 4.19858 3.93145 4.23248C3.91698 4.26637 3.90458 4.30111 3.89528 4.33669C3.85678 4.48023 3.85885 4.63466 3.90665 4.78157C3.92422 4.83432 3.94695 4.88579 3.97615 4.9356C4.09965 5.14527 4.22289 5.35536 4.34562 5.56503C4.50861 5.84216 4.67138 6.11929 4.83413 6.3964L5.38712 7.33872L5.39151 7.34625C5.03754 7.56347 4.70089 7.80411 4.38309 8.06735C4.19267 8.22515 4.00922 8.39044 3.83353 8.56329C3.48343 8.90689 3.16279 9.2798 2.87496 9.6778C2.64036 10.0026 2.42798 10.3437 2.2404 10.6998C2.09417 10.9769 1.9624 11.2627 1.84664 11.5565C1.70971 11.9035 1.59499 12.2617 1.50378 12.6288C1.45185 12.8389 1.40767 13.0515 1.37124 13.2674C1.36588 13.2988 1.36094 13.3304 1.35604 13.3618L1.35444 13.3721C1.33481 13.4972 1.31827 13.6232 1.30432 13.75H18.6956C18.6817 13.6232 18.6651 13.4972 18.6458 13.3721L18.647 13.3712ZM14.5237 11.3756C14.8718 11.147 14.9224 10.6179 14.6366 10.194C14.3511 9.77003 13.8375 9.61177 13.4897 9.84045C13.1417 10.0691 13.0911 10.5982 13.3768 11.0221C13.6623 11.4461 14.176 11.6043 14.5237 11.3756ZM6.52557 9.84192C6.87359 10.0706 6.92424 10.5996 6.63848 11.0236C6.35298 11.4475 5.83933 11.6058 5.4913 11.3771C5.14353 11.1484 5.09289 10.6194 5.37839 10.1954C5.66415 9.7715 6.17754 9.61322 6.52557 9.84192Z" fill="white"/>
</svg>

<svg xmlns="http://www.w3.org/2000/svg" viewBox="0 0 20 20">
  <rect width="100%" height="100%" fill="#34A853"/>
  <path fill="#fff" fill-rule="evenodd" d="M18.65 13.37v-.03a6 6 0 0 0-.15-.71 8.54 8.54 0 0 0-3.88-5.27l.01-.01v-.01l.27-.45.26-.45.52-.88a255.47 255.47 0 0 0 .43-.78.78.78 0 0 0-.35-.92.81.81 0 0 0-1 .15.8.8 0 0 0-.1.13l-.37.63-.51.88a613.53 613.53 0 0 1-.53.9l-.02.03-.04.06c-.03 0-.05-.02-.08-.03a8.82 8.82 0 0 0-3.1-.56h-.1a8.83 8.83 0 0 0-3.09.59L6.8 6.6a5.48 5.48 0 0 1-.03-.05l-.26-.45-.27-.45-.51-.88a263.97 263.97 0 0 1-.47-.76.8.8 0 0 0-1-.15.8.8 0 0 0-.35.92c.01.05.04.1.07.16a267.4 267.4 0 0 1 .85 1.46l.56.94a8.77 8.77 0 0 0-3.89 5.29 8.67 8.67 0 0 0-.14.73v.01l-.06.38h17.4a8.69 8.69 0 0 0-.05-.38Zm-4.13-2c.35-.22.4-.75.12-1.18-.29-.42-.8-.58-1.15-.35-.35.23-.4.76-.11 1.18.28.43.8.58 1.14.36Zm-8-1.53c.35.23.4.76.12 1.18-.29.43-.8.59-1.15.36-.35-.23-.4-.76-.11-1.18.28-.43.8-.59 1.15-.36Z" clip-rule="evenodd"/>
</svg>
